assets/misc-grey/MiscGrey80.svg

<svg xmlns="http://www.w3.org/2000/svg" viewBox="0 0 40 40"><path fill-rule="evenodd" d="M19.561 11.553h.068c3.315.035 4.738 2.436 5.058 3.788.393 1.248.324 3.794-2.314 5.939a602.86 602.86 0 00-1.634 1.331v1.036a1.5 1.5 0 11-3 0v-1.746c0-.446.199-.869.543-1.154 0 0 .464-.386 2.198-1.795 1.675-1.362 1.373-2.609 1.333-2.746a2.385 2.385 0 01-.044-.166c-.079-.326-.485-1.469-2.171-1.487h-.035c-1.813 0-2.184 1.471-2.198 1.534a1.502 1.502 0 01-1.806 1.113 1.499 1.499 0 01-1.113-1.806 5.156 5.156 0 015.115-3.841zm-1.739 16.514c0-.862.746-1.608 1.609-1.608.861 0 1.608.746 1.608 1.608 0 .862-.747 1.608-1.608 1.608-.863 0-1.609-.746-1.609-1.608zm2.167 8.215c-8.961 0-16.25-7.289-16.25-16.25 0-8.96 7.289-16.25 16.25-16.25 8.96 0 16.25 7.29 16.25 16.25 0 8.961-7.29 16.25-16.25 16.25zm0-35.5C9.375.782.739 9.418.739 20.032s8.636 19.25 19.25 19.25 19.25-8.636 19.25-19.25S30.603.782 19.989.782z" clip-rule="evenodd"/></svg>

<svg width="40" height="40" viewBox="0 0 40 40" fill="none" xmlns="http://www.w3.org/2000/svg">
<path fill-rule="evenodd" clip-rule="evenodd" d="M19.561 11.553H19.629C22.944 11.588 24.367 13.989 24.687 15.341C25.08 16.589 25.011 19.135 22.373 21.28C21.595 21.912 21.075 22.336 20.739 22.611V23.647C20.739 24.476 20.067 25.147 19.239 25.147C18.41 25.147 17.739 24.476 17.739 23.647V21.901C17.739 21.455 17.938 21.032 18.282 20.747C18.282 20.747 18.746 20.361 20.48 18.952C22.155 17.59 21.853 16.343 21.813 16.206C21.801 16.167 21.777 16.08 21.769 16.04C21.69 15.714 21.284 14.571 19.598 14.553H19.563C17.75 14.553 17.379 16.024 17.365 16.087C17.173 16.894 16.36 17.392 15.559 17.2C14.752 17.009 14.254 16.2 14.446 15.394C14.763 14.06 16.239 11.553 19.561 11.553ZM17.822 28.067C17.822 27.205 18.568 26.459 19.431 26.459C20.292 26.459 21.039 27.205 21.039 28.067C21.039 28.929 20.292 29.675 19.431 29.675C18.568 29.675 17.822 28.929 17.822 28.067ZM19.989 36.282C11.028 36.282 3.73901 28.993 3.73901 20.032C3.73901 11.072 11.028 3.78201 19.989 3.78201C28.949 3.78201 36.239 11.072 36.239 20.032C36.239 28.993 28.949 36.282 19.989 36.282ZM19.989 0.782013C9.37501 0.782013 0.739014 9.41801 0.739014 20.032C0.739014 30.646 9.37501 39.282 19.989 39.282C30.603 39.282 39.239 30.646 39.239 20.032C39.239 9.41801 30.603 0.782013 19.989 0.782013Z" fill="#1A1919"/>
</svg>
